public/svg/icon/ink.svg

<svg xmlns="http://www.w3.org/2000/svg" xmlns:xlink="http://www.w3.org/1999/xlink" width="32" height="32" viewBox="0 0 32 32"><defs><linearGradient id="ink-c" x1="50%" x2="50%" y1="0%" y2="100%"><stop offset="0%" stop-color="#FFF" stop-opacity=".5"/><stop offset="100%" stop-opacity=".5"/></linearGradient><circle id="ink-b" cx="16" cy="15" r="15"/><filter id="ink-a" width="111.7%" height="111.7%" x="-5.8%" y="-4.2%" filterUnits="objectBoundingBox"><feOffset dy=".5" in="SourceAlpha" result="shadowOffsetOuter1"/><feGaussianBlur in="shadowOffsetOuter1" result="shadowBlurOuter1" stdDeviation=".5"/><feComposite in="shadowBlurOuter1" in2="SourceAlpha" operator="out" result="shadowBlurOuter1"/><feColorMatrix in="shadowBlurOuter1" values="0 0 0 0 0 0 0 0 0 0 0 0 0 0 0 0 0 0 0.199473505 0"/></filter><path id="ink-e" d="M14.8596404,10.5271123 C15.1666889,10.4299627 15.5160888,10.602673 15.6431434,10.9049161 C15.9501918,11.6065517 16.2254766,12.3297762 16.5431129,13.0314119 C16.7336947,13.4523932 17.3795553,13.5063652 17.6336643,13.117767 C18.0571794,12.4161314 18.3959915,11.6713181 18.8089187,10.9588881 C19.1477308,10.5163179 19.7618277,10.7322058 20.2276943,10.6890282 C20.7147367,10.656645 21.0747245,11.2719255 20.7994397,11.6929069 C19.4653671,14.1864121 18.1207067,16.6691229 16.7866341,19.1626281 C16.5642887,19.6159927 15.8337251,19.6159927 15.6325555,19.1410393 C15.3360949,18.4178149 15.1031616,17.6622072 14.8172889,16.9389828 C14.6478829,16.4640294 13.9173193,16.3884686 13.6737981,16.8418332 C13.2608709,17.5866465 12.9008831,18.3638429 12.4879559,19.0978617 C12.2867862,19.432488 11.8632711,19.378516 11.5350469,19.378516 C11.2174106,19.3569272 10.836247,19.4540767 10.5927258,19.1842169 C10.3703804,18.968329 10.3386167,18.6013196 10.4974349,18.3422541 C11.7468044,15.9782816 13.0173497,13.6035148 14.2667193,11.2179535 C14.4149496,10.9480937 14.5420041,10.6134674 14.8596404,10.5271123 Z M10.4974349,10.710617 C10.8680106,10.6890282 11.2385863,10.6890282 11.609162,10.710617 C12.0220893,10.7537946 12.2867862,11.2827199 12.0856165,11.6605237 C10.8468349,14.0029074 9.59746531,16.3344967 8.35868364,18.6660859 C8.21045336,18.9251514 8.0939867,19.270572 7.77635038,19.3569272 C7.40577467,19.4108992 7.02461108,19.378516 6.65403536,19.378516 C6.19875663,19.4001048 5.81759304,18.8064131 6.09287786,18.4070205 C7.38459891,15.989076 8.67631996,13.5603372 9.96804102,11.1315984 C10.0739198,10.9265049 10.2539137,10.7214114 10.4974349,10.710617 Z M23.6369909,10.7322058 C24.0393302,10.6134674 24.4628453,10.6998226 24.8757725,10.6674394 C25.1934089,10.6782338 25.5957482,10.6134674 25.8286815,10.8941217 C26.1145542,11.1855703 26.0298512,11.7360845 25.6698633,11.9195892 C24.9392998,12.3837482 24.2193241,12.8802903 23.4781727,13.3336549 C23.0123061,13.6574868 22.3240941,13.1069726 22.5252637,12.5672529 C22.7052576,12.1354771 22.9593667,11.7360845 23.1605364,11.3151031 C23.277003,11.0992152 23.3828818,10.8185609 23.6369909,10.7322058 Z M20.1324034,17.1872538 C20.344161,17.0577211 20.6088579,17.1008987 20.8100276,17.2088426 C21.3711851,17.4894969 21.9323426,17.79174 22.504088,18.0615998 C22.7476092,18.1695438 23.0017182,18.3746373 23.0123061,18.6660859 C23.0546576,19.0546841 22.7264334,19.432488 22.3452698,19.4001048 C21.5300032,19.4001048 20.7147367,19.4108992 19.910058,19.4001048 C19.5077186,19.4001048 19.1900823,18.9251514 19.3383126,18.5365532 C19.4441914,18.2558989 19.6030095,18.0076278 19.7300641,17.737768 C19.825355,17.5326745 19.9206459,17.2844034 20.1324034,17.1872538 Z"/><filter id="ink-d" width="117.5%" height="138.9%" x="-8.8%" y="-13.9%" filterUnits="objectBoundingBox"><feOffset dy=".5" in="SourceAlpha" result="shadowOffsetOuter1"/><feGaussianBlur in="shadowOffsetOuter1" result="shadowBlurOuter1" stdDeviation=".5"/><feColorMatrix in="shadowBlurOuter1" values="0 0 0 0 0 0 0 0 0 0 0 0 0 0 0 0 0 0 0.204257246 0"/></filter></defs><g fill="none" fill-rule="evenodd"><use fill="#000" filter="url(#ink-a)" xlink:href="#ink-b"/><use fill="#DF1A14" xlink:href="#ink-b"/><use fill="url(#ink-c)" style="mix-blend-mode:soft-light" xlink:href="#ink-b"/><circle cx="16" cy="15" r="14.5" stroke="#000" stroke-opacity=".097"/><g fill-rule="nonzero"><use fill="#000" filter="url(#ink-d)" xlink:href="#ink-e"/><use fill="#FFF" fill-rule="evenodd" xlink:href="#ink-e"/></g></g></svg>

<svg xmlns="http://www.w3.org/2000/svg" xmlns:xlink="http://www.w3.org/1999/xlink" width="32" height="32" viewBox="0 0 32 32"><defs><filter id="a" width="111.7%" height="111.7%" x="-5.8%" y="-4.2%" filterUnits="objectBoundingBox"><feOffset dy=".5" in="SourceAlpha" result="shadowOffsetOuter1"/><feGaussianBlur in="shadowOffsetOuter1" result="shadowBlurOuter1" stdDeviation=".5"/><feComposite in="shadowBlurOuter1" in2="SourceAlpha" operator="out" result="shadowBlurOuter1"/><feColorMatrix in="shadowBlurOuter1" values="0 0 0 0 0 0 0 0 0 0 0 0 0 0 0 0 0 0 0.199473505 0"/></filter><filter id="d" width="117.5%" height="138.9%" x="-8.8%" y="-13.9%" filterUnits="objectBoundingBox"><feOffset dy=".5" in="SourceAlpha" result="shadowOffsetOuter1"/><feGaussianBlur in="shadowOffsetOuter1" result="shadowBlurOuter1" stdDeviation=".5"/><feColorMatrix in="shadowBlurOuter1" values="0 0 0 0 0 0 0 0 0 0 0 0 0 0 0 0 0 0 0.204257246 0"/></filter><linearGradient id="c" x1="50%" x2="50%" y1="0%" y2="100%"><stop offset="0%" stop-color="#FFF" stop-opacity=".5"/><stop offset="100%" stop-opacity=".5"/></linearGradient><circle id="b" cx="16" cy="15" r="15"/><path id="e" d="M14.86 10.527c.307-.097.656.076.783.378.307.702.582 1.425.9 2.126.19.421.837.475 1.09.087.424-.702.763-1.447 1.176-2.16.339-.442.953-.226 1.419-.269.487-.032.847.583.571 1.004-1.334 2.493-2.678 4.976-4.012 7.47-.223.453-.953.453-1.154-.022-.297-.723-.53-1.479-.816-2.202-.17-.475-.9-.55-1.143-.097-.413.745-.773 1.522-1.186 2.256-.201.334-.625.28-.953.28-.318-.021-.699.076-.942-.194a.696.696 0 01-.096-.842c1.25-2.364 2.52-4.738 3.77-7.124.148-.27.275-.605.593-.69zm-4.363.184a9.55 9.55 0 011.112 0c.413.043.678.572.477.95-1.24 2.342-2.489 4.673-3.727 7.005-.149.26-.265.605-.583.69-.37.055-.751.023-1.122.023-.455.021-.836-.573-.561-.972 1.292-2.418 2.583-4.847 3.875-7.275.106-.205.286-.41.53-.421zm13.14.021c.402-.119.826-.032 1.239-.065.317.011.72-.054.953.227.286.292.2.842-.16 1.026-.73.464-1.45.96-2.19 1.414-.467.323-1.155-.227-.954-.767.18-.432.434-.83.636-1.252.116-.216.222-.496.476-.583zm-3.505 6.455c.212-.13.477-.086.678.022.561.28 1.122.583 1.694.853.244.108.498.313.508.604.043.389-.286.766-.667.734-.815 0-1.63.01-2.435 0-.402 0-.72-.475-.572-.863.106-.281.265-.53.392-.8.095-.204.19-.453.402-.55z"/></defs><g fill="none" fill-rule="evenodd"><use fill="#000" filter="url(#a)" xlink:href="#b"/><use fill="#DF1A14" xlink:href="#b"/><use fill="url(#c)" style="mix-blend-mode:soft-light" xlink:href="#b"/><circle cx="16" cy="15" r="14.5" stroke="#000" stroke-opacity=".097"/><g fill-rule="nonzero"><use fill="#000" filter="url(#d)" xlink:href="#e"/><use fill="#FFF" fill-rule="evenodd" xlink:href="#e"/></g></g></svg>
